X: 1406
T: Mâhur Seyir
C: Erol Bingöl
O: Turkey
F: http://compmusic.upf.edu/node/140
N: mahur--seyir--sofyan--1--erol_bingol
N: makam= mahur
N: form= seyir
N: usul= sofyan = 4/4
M: 4/4
L: 1/16
K: C ^9/8f   
Q: 1/4=60
%%MIDI tuningsystem comma53
g8 f2g2 a2b2  | g4 c'4 c'2b2 b2a2  | \
w:   |   | 
d'c'ba b2c'2 b2a2 g2f2  | 
w:   | 
g12 z4  | g2f2 g2b2 a2g2 f2e2  | d2e2 f2g2 e2f2 g2a2  | \
w:   |   |   | 
b2a2 g2f2 f3e e2ed  | 
w:   | 
d12 z4  | d2g4a2 b2c'2 b2a2  | a2b2 a2g2 g2a2 g2f2  | \
w:   |   |   | 
a2g2 f2e2 e2d2 d2c2  | 
w:   | 
d3c dc_1/4B^A B8  | c4 B2c2 d2e2 d2c2  | \
w:   |   | 
c2B4A2 B3A G4  | A2c2 B2A2 A2G2 G2F2  | 
w:   |   | 
G12 z4  | |


